src/16/actions/appointment-soon.svg

<svg xmlns="http://www.w3.org/2000/svg" width="16" height="16"><defs><style id="current-color-scheme" type="text/css"></style></defs><path d="M2 1C1 1 1 2 1 2v12c0 1 1 1 1 1h6.762a4.5 4.5 0 0 1-.729-2H3V6h10v2.031a4.5 4.5 0 0 1 2 .729V2c0-1-1-1-1-1H2zm10.5 8A3.5 3.5 0 0 0 9 12.5a3.5 3.5 0 0 0 3.5 3.5 3.5 3.5 0 0 0 3.5-3.5A3.5 3.5 0 0 0 12.5 9zm-.5 1h1v2h2v1h-3v-3z" fill="currentColor" color="#5d656b"/></svg>

<svg xmlns="http://www.w3.org/2000/svg" width="16" height="16" version="1.1" viewBox="0 0 16 16">
 <defs>
  <style id="current-color-scheme" type="text/css">
   .ColorScheme-Text { color:#5d656b; } .ColorScheme-Highlight { color:#5294e2; }
  </style>
 </defs>
 <path style="fill:currentColor" class="ColorScheme-Text" d="M 2 1 C 1 1 1 2 1 2 L 1 14 C 1 15 2 15 2 15 L 8.7617188 15 A 4.5 4.5 0 0 1 8.0332031 13 L 3 13 L 3 6 L 13 6 L 13 8.03125 A 4.5 4.5 0 0 1 15 8.7597656 L 15 2 C 15 1 14 1 14 1 L 2 1 z M 12.5 9 A 3.5 3.5 0 0 0 9 12.5 A 3.5 3.5 0 0 0 12.5 16 A 3.5 3.5 0 0 0 16 12.5 A 3.5 3.5 0 0 0 12.5 9 z M 12 10 L 13 10 L 13 12 L 15 12 L 15 13 L 13 13 L 12 13 L 12 12 L 12 10 z"/>
</svg>
